X:1
T:Io dico et diss
T:Cipriano de Rore
T:Source : Fantasie et recerchari a tre voci---Venetia---G.Scotto---1549. Editor : André Vierendeels ( 16/11/17). Notes : Original clefs : C1, C1, C4 Original note values have been halved Square bracket indicates ligature Collected by Giuliano Tiburtino
T:Io dico et dissi
T:©
T:©
T:©
T:©
T:©
T:©
C:Cipriano de Rore
Z:©
%%score [ 1 2 3 ]
L:1/8
Q:1/4=120
M:2/2
K:F
V:1 treble nm="Soprano" snm="S"
V:2 treble nm="Alto" snm="A"
V:3 treble-8 nm="Tenor" snm="T"
V:1
 z8 | z4 F4 | B4 A4 | z2 A2 c4 | F4 z4 | z2 F2 F2 E2 | F4 D2 B2- | BA A3 G G2 | A8 | z2 c2 c2 c2 | %10
w: |Io|di- co,|et dis-|si|et di- ro|sin ch'io vi-||va|che chi si|
 B2 A2 c2 c2 | G2 A2 B4 | A2 D2 A2 A2 | G2 E2 F2 D2 | EDEF G2 DE | FD G3 F F2- | F2 E2 F4 | %17
w: trov' in- de- gno|lec- cio pre-|do, se ben di|se ve- de sua|don- * * * na _ _|_ _ schi- * *|* * va,|
 z4 z2 D2 | E2 E2 G4 | A4 G4- | G2 F2 E2 E2 | A4 G4 | z2 F2 F4 | D4 E2 E2- | E2 F4 D2 | D4 z2 F2 | %26
w: s'en|tutt' av- vers'|al suo|_ de- sir ac-|ce- so,|se ben|A- mor, se|_ ben A-|mor, d'o-|
 F2 F2 E2 F2 | G4 F4 | z2 c2 c2 c2 | B2 B2 A3 G | F3 E/D/ E2 D2 | z2 F2 D2 E2 | F2 A2 A2 F2 | %33
w: gni mer- ced- il|pri- va,|d'o- gni mer-|ce- de'il _ pri-|* * * * va,|pe- scia ch'el|tem- po la fa-|
 G2 B4 A2- | AG G2 A2 c2 | c2 c2 B4 | A4 z4 | c4 B2 A2 | c3 B AG F2- | F2 E2 F3 G | AF G2 C4 | z8 | %42
w: ti- c'ha spe-|* * * so pur|ch'al- ta- men-|te,-|hab- bia lo-|cat' il _ _ _|_ _ co- *|* * * re,||
 z8 | F8 | E4 D4 | E4 E4 | c6 B2 | A2 G2 F4 | E4 z2 D2 | A6 G2 | F2 E2 D4 | C2 C2 F4 | D4 F4- | %53
w: |pian-|ger non|de se|ben lan-|gui- sce mo-|re, se|ben lan-|gui- sce mo-|re, se ben|lan gui-|
 F4 F4 | B8 | A8- | A8 |] %57
w: * sce|mo-|re.|_|
V:2
 C4 F4 | E4 z2 D2 | G4 C4 | z2 F2 F2 E2 | D2 D4 B2- | BA A3 G G2 | A2 D2 F2 G2 | F2 F2 D4 | %8
w: Io di-|co, et|dis- si|et di- ro|sin ch'io vi-||vo et di- ro|sin ch'io vi-|
 E2 c2 c2 c2 | B2 A2 G2 A2 | DEFG A3 G/F/ | E2 F2 D3 E | F4 E4 | z4 z2 F2 | c2 c2 B2 G2 | %15
w: va, che di si|trov' in- de- gno|lec- * * * * * *|* cio pre- *|* so,|se|ben si se ve-|
 A2 B2 c2 A2 | G4 F2 D2 | E2 E2 G4 | A2 c4 B2 | c2 CD EFGA | B2 A3 G G2- | GF F4 E2 | F4 z2 A2 | %23
w: de sua don- na|schi- va, s'en|tutt' av- vers'|al suo de-|sir ac- * * * * *|* * * ce-||so se|
 B4 G4 | A4 z2 F2 | B4 A2 A2- | A2 c2 c2 c2 | B2 B2 A4 | A4 z2 F2 | D2 E2 F2 D2 | A2 F2 GA B2- | %31
w: ben A-|mor, se|ben A- mor|_ d'o- gni mer-|ced' il pri-|va, pe-|scia ch'el tem- po|et le fa- ti- ca|
 B2 A2 B4 | A2 F2 E2 D2 | D3 C DE F2- | F2 D2 F4 | E4 z2 F2 | F6 E2 | A2 A2 z2 F2 | F2 E2 F3 G | %39
w: _ spe- so|et la fa- ti-|ca _ _ _ _|_ ha spe-|so, pur|ch'al- te-|mente, _ hab-|bia lo- cat' il|
 AB c4 A2 | c3 B AG F2- | FE/D/ E2 D4 | E4 z4 | A8 | A4 G4 | A4 z4 | A4 c4- | c2 B2 A2 A2 | G8 | %49
w: _ _ _ _|co- * * * *|* * * * re,|_|pian-|ger non-|de|se ben|_ lan- gui- sce|mo-|
 C4 z4 | C4 F4- | F2 E2 D2 D2 | B4 A4 | A4 D4- | D2 D2 D2 E2 | F8 | F8 |] %57
w: re,|se ben|_ lan- gui- sce|mo- re,|se ben|_ lan- gui- sce|mo-|re.|
V:3
 z4 z2 F2 | c4 B4 | z2 G2 F4 | D4 z2 A2 | B2 B2 G2 G2 | d4 c4 | z2 B2 B2 G2 | d2 d2 B4 | %8
w: Io|di- co|et dis-|si et|di- ro sin ch'io|vi- vo,|et di- ro|sin ch'io vi-|
 A2 F2 F2 A2 | G2 F2 E2 F2 | G2 F2 FGAB | c2 F2 z2 G2 | d2 d2 c2 A2 | B2 c2 d2 B2 | A4 G4 | %15
w: va, che chi si|trov' in- de- gno|lec- cio pre- * * *|* so se|ben di se ve-|de sua don- na|schi- va,|
 z2 G2 A2 A2 | c4 d4 | c6 B2 | A3 G/F/ E2 G2 | FGAB c4 | d4 c4 | z4 c4 | d8 | G4 c4 | z2 A2 B4 | %25
w: s'en tutt' av-|vers' al|suo de-|* * * * sir|ac- * * * ce-|* so,|se|ben|A- mor,|se ben|
 G4 d4 | z8 | z4 z2 D2 | F2 F2 E2 F2 | G4 D4- | D4 z2 G2 | G2 D2 G2 G2 | DEFG A2 B2- | B2 G4 D2 | %34
w: A- mor||d'o-|gni mer- ce- d'il|pri- va,|_ pe-|scia ch'el tem- po|la _ _ _ _ fa-|* ti- c'ha|
 B4 A2 A2 | A2 A2 d4- | d2 D2 A4 | F4 G2 FG | AB c2 d4 | A4 z2 F2 | F2 E2 F3 G | AB c4 B2 | %42
w: spe so, par|ch'al- ta- ment'|_ hab- bia|lo- cat' il _|_ _ _ co-|re, hab-|bia lo- cat' il|_ _ co- *|
 c2 c2 z4 | d8 | A4 B4 | A8 | z8 | z4 F4 | c6 B2 | A2 F2 c4 | A4 z4 | z8 | G4 d4- | d2 c2 B2 A2 | %54
w: * re,|pian-|ger non-|de||se|ben lan|gui- sce mo-|re||se ben|_ lan gui- sce|
 G8 | F8- | F8 |] %57
w: mo-|re.|_|

